X:10
T:Father O'Grady's Visit to Bocca
C:Josie McDermott
R:reel
D:Catherine McEvoy
N:melodic code 5132 5521
Z:Paul Stewart Cranford (P.S.C.), <http://www.cranfordpub.com>
L:1/8
Q:333
M:C|
K:D
Adde fded|~A3 G EGDe|f2 ed cAAG|EFGE D2 de|
fded ~A3 G|EFGE ABde|feed cAAG|EFGE D2 z2|
Adde (3(fed) ed|(3ABA GA EGDe|f2 ed cAAG|EFGE D2 de|
fded ~A3 G|EFGE ABde|feed cAAG|EFGE D2 z2||
|:Adde fage|d2 ed cAAF|~G3 A GE E2|edcA GE E2|
Adde fage|dfed cA ~A2|faaf geeg|fage d2 FG:|
% if none of this makes sense, go to http://www.cranfordpub.com/tunes/abcs
